X: 10113
T: WALTER'S HORNPIPE
C: Bob McQuillen 3 Nov 93
B: Bob's Note Book 10 #113
%R: hornpipe, reel
Z: 2020 John Chambers <jc:trillian.mit.edu>
M: C
L: 1/8
K: D
FG \
| A2AG FDFG | AFAd f2gf | edcB Aceg | efec A2FG |\
| A2AG FDFG | AFAd f2gf | efed Aceg | f2d2 d2  :|
|: cd \
| ecAe fdAf | gefd ecAd | eAfA gefd | ecdB | AGFE |\
| F2AF G2BG | AFAd BGBd | "^*"Adfa gecd | e2d2 d2 :|
"^*Last time only"Adfa bgec | d2f2 d2 |] y8 y8 y8 y8 y8 y8 y8
%%begintext align
%% Walter Dudley lives up in Concord, NH -
%% He is a friend of Dorma Maglin and he, too, is, to some degrees at least, a
%% domesticated rat fancier. Walter's got a really nice old Sears-Roebuck
%% (pre-Silverstone) Mandolin that he likes to play tunes on (when he's not busy
%% making music tapes to give to his friends) and so I thought you might like to
%% try out your own tune, Walter - and by the way, thanks a lot for that last
%% tape - I really appreciated getting it!
%%endtext

%%sep 1 1 500

%%sep 1 1 500

